2. Evclid/img/spoller.svg

<svg fill="none" height="50" viewBox="0 0 50 50" width="50" xmlns="http://www.w3.org/2000/svg"><ellipse cx="25" cy="25" fill="#ececec" rx="25" ry="25"/><path clip-rule="evenodd" d="m25.0571 24.0571v-15.0571h.8858v15.0571h7.9406 7.1165v.8858h-15.0571v15.0571h-.8858v-15.0571h-15.0571v-.8858z" fill="#666" fill-rule="evenodd"/></svg>

<svg width="50" height="50" viewBox="0 0 50 50" fill="none" xmlns="http://www.w3.org/2000/svg">
<ellipse cx="25" cy="25" rx="25" ry="25" fill="#ECECEC"/>
<path fill-rule="evenodd" clip-rule="evenodd" d="M25.0571 24.0571L25.0571 9L25.9429 9L25.9429 24.0571L33.8835 24.0571L41 24.0571L41 24.9429L25.9429 24.9429L25.9429 40L25.0571 40L25.0571 24.9429L10 24.9429L10 24.0571L25.0571 24.0571Z" fill="#666666"/>
</svg>
